!!!COM: L van Beethoven
!!!OTL: String Quartet Op18 No3
**kern	**dynam	**kern	**dynam	**kern	**dynam	**kern	**dynam	**mxhm
*part4	*part4	*part3	*part3	*part2	*part2	*part1	*part1	*part1
*staff4	*	*staff3	*	*staff2	*	*staff1	*	*
*I"Violoncello	*	*I"Viola	*	*I"Violin II	*	*I"Violin I	*	*
*clefF4	*	*clefC3	*	*clefG2	*	*clefG2	*	*
*k[b-]	*	*k[b-]	*	*k[b-]	*	*k[b-]	*	*
*M3/4	*	*M3/4	*	*M3/4	*	*M3/4	*	*
!LO:TX:a:B:t=Allegro	!	!LO:TX:a:B:t=Allegro	!	!LO:TX:a:B:t=Allegro	!	!LO:TX:a:B:t=Allegro	!	!
*MM145	*	*MM145	*	*MM145	*	*MM145	*	*
!	!	!	!	!	!	!LO:TX:a:t=[quarter]=145	!	!
4r	.	4r	.	4r	.	4a	p	.D.I
=1	=1	=1	=1	=1	=1	=1	=1	=1
!	!	!	!LO:DY:a	!	!	!	!	!
(2.F	p	(2.F	p p	(2c	.	[2.a	.	I+
.	.	.	.	4c#X)	.	.	.	.
=2	=2	=2	=2	=2	=2	=2	=2	=2
[2.BB-)	.	2.B-)	.	2.d	.	(4a]	.	IV
.	.	.	.	.	.	4b-	.	.
.	.	.	.	.	.	4g)	.	ii6
=3	=3	=3	=3	=3	=3	=3	=3	=3
4BB-]	.	4G'	.	4c	.	(4f	.	V2(4)
4BB-	.	(4G	.	4c	.	4e)	.	V2
8AAL	.	4A)	.	4c	.	4f'	.	I6
8FFJ	.	.	.	.	.	.	.	.
=4	=4	=4	=4	=4	=4	=4	=4	=4
4C	.	4c	.	(4f	.	(4a	.	V(64)
4r	.	4r	.	4e)	.	4g)	.	V\\
4r	.	4r	.	4r	.	4a'	.	.
=5	=5	=5	=5	=5	=5	=5	=5	=5
(2.F	<[	(2.c	<[	[2.f	<[	2a	<	I
.	.	.	.	.	.	[4b-	[[	.
=6	=6	=6	=6	=6	=6	=6	=6	=6
2D)	>	2d)	>	2f]	>	4b-]	>	vi(6)
.	.	.	.	.	.	4a	.	vi
4D'	]]	4d'	]]	4f'	]]	4g#X'	]]	iii.#viio43
=7	=7	=7	=7	=7	=7	=7	=7	=7
4C'	.	4c'	.	4e'	.	(2a	.	i
4AA'	.	(4c	.	(4e	.	.	.	.
4EE'	.	4d)	.	4g#X)	.	8ccL	.	V7(6)
.	.	.	.	.	.	8bXJ)	.	V7
=	=	=	=	=	=	=	=	=
4AA	.	4c	.	4a	.	4a	.	i\\
4r	.	4r	.	4r	.	4r	.	.
=8:|!|:	=8:|!|:	=8:|!|:	=8:|!|:	=8:|!|:	=8:|!|:	=8:|!|:	=8:|!|:	=8:|!|:
4r	.	4r	.	[4a	.	[4cc	.	IV.V7/vi
=9	=9	=9	=9	=9	=9	=9	=9	=9
(2d	.	[2.d	.	4a]	.	4cc]	.	.
.	.	.	.	(4g	.	(4b-	.	V(64)/vi
4c	.	.	.	4f#X	.	4a	.	V2/vi
=10	=10	=10	=10	=10	=10	=10	=10	=10
4B-	.	(4d]	.	4g	.	4b-	.	vi6
4A	.	4c	.	4a	.	4cc	.	.
4G)	.	4B-)	.	4b-	.	4dd	.	vi
=11	=11	=11	=11	=11	=11	=11	=11	=11
[2.F	.	(4A	.	4cc	.	4ee-	.	V7
.	.	4F	.	4dd	.	4ff	.	V(6)
.	.	4e-)	.	4ee-)	.	4gg)	.	V9
=12	=12	=12	=12	=12	=12	=12	=12	=12
2F;]	.	2e-;	.	2a;	.	2cc;	.	V7
4r	.	4r	.	4r	.	4dd	pp	.
=13	=13	=13	=13	=13	=13	=13	=13	=13
(2.B-	pp	(2.B-	pp	(2f	pp	[2.dd	.	I+
.	.	.	.	4f#X	.	.	.	.
=14	=14	=14	=14	=14	=14	=14	=14	=14
[2.E-)	.	2.e-)	.	2.g)	.	4dd]	.	IV
.	.	.	.	.	.	4ee-	.	.
.	.	.	.	.	.	4cc	.	ii6
=15	=15	=15	=15	=15	=15	=15	=15	=15
4E-]	.	4c	.	4f	.	(4b-	.	V2(4)
4E-	.	(4c	.	4f	.	4a)	.	V2
8DL	.	4d)	.	4f	.	4b-'	.	I6
8BB-J	.	.	.	.	.	.	.	.
=16	=16	=16	=16	=16	=16	=16	=16	=16
4F	.	4f	.	(4b-	.	(4dd	.	V(64)
4r	.	4r	.	4a)	.	4cc)	.	V\\
4A'	sf	4f'	sf	4f'	sf	4cc#X'	sf	V+6
=17	=17	=17	=17	=17	=17	=17	=17	=17
4B-'	.	4f'	.	4f'	.	(4ee-	.	I(4)
4r	.	4r	.	4r	.	4dd)	.	.
4G'	sf	4c'	sf	4b-'	sf	4eeX'	sf	V43/V
=18	=18	=18	=18	=18	=18	=18	=18	=18
4A'	.	4c'	.	4cc'	.	(4gg	.	V6(2)
4r	.	4r	.	4r	.	4ff)	.	V6
4E'	sf	4c'	sf	4g'	sf	4gg'	sf	I.V65
=19	=19	=19	=19	=19	=19	=19	=19	=19
4F'	.	4c'	.	(4b-	.	(4bb-	.	I(4)
4r	.	4r	.	4a)	.	4aa)	.	I
4G'	sf	4ff'	sf	4b-'	sf	4bb-	sf	ii7
=20	=20	=20	=20	=20	=20	=20	=20	=20
!LO:TX:a:t=cresc.	!	!LO:TX:b:t=cresc.	!	!LO:TX:b:t=cresc.	!	!LO:TX:b:t=cresc.	!	!
(2.G#X	.	[2.f [2.ff	.	[2.bX	.	[2.bbX	.	#viio7/iii
=21	=21	=21	=21	=21	=21	=21	=21	=21
[2.A)	.	2.f_ 2.ff_	.	(2.b]	.	(2.bb]	.	I6(#4)
=22	=22	=22	=22	=22	=22	=22	=22	=22
2A;]	p	2f;] 2ff]	p	2cc;)	p	2ccc;)	p	I6
4r	.	4r	.	4cc#X	.	4ccc#X	.	I+6
=23	=23	=23	=23	=23	=23	=23	=23	=23
2.r	.	2.r	.	(2.cc#X	.	(2.ccc#X	.	.
=24	=24	=24	=24	=24	=24	=24	=24	=24
2.r	.	2.r	.	4dd	.	4ddd	.	IV
.	.	.	.	4b-	.	4bb-	.	.
.	.	.	.	4a)	.	4aa)	.	.
=25	=25	=25	=25	=25	=25	=25	=25	=25
(2.B-	< > ]]	(2.d	< > ]]	(2.g#X	< > ]]	(2.gg#X	> < [[	.Ger6/vi
=26	=26	=26	=26	=26	=26	=26	=26	=26
4A)	]	4c#X)	]	4a)	]	4aa)	[	V/vi\\
4r	.	4r	.	4r	.	4r	.	.
4r	.	4r	.	4cc#X	.	4ccc#X	.	.
=27	=27	=27	=27	=27	=27	=27	=27	=27
2.r	.	2.r	.	(2.cc#X	.	(2.ccc#X	.	.
=28	=28	=28	=28	=28	=28	=28	=28	=28
2.r	.	2.r	.	4dd	.	4ddd	.	ii
.	.	.	.	4b-	.	4bb-	.	.
.	.	.	.	4g)	.	4gg)	.	.
=29	=29	=29	=29	=29	=29	=29	=29	=29
[2.BB-	< > ]]	[2.c	> < [[	(2.f	< > ]]	(2.ff	< > ]]	V2(4)
=30	=30	=30	=30	=30	=30	=30	=30	=30
2BB-]	]	4c]	[	4e)	]	4ee)	]	V2
.	.	4r	.	4r	.	4r	.	.
4AA	.	4c	.	4f	.	4ff	.	I6
=31	=31	=31	=31	=31	=31	=31	=31	=31
4BB-	.	(4c#X	>	(2a	>	(2aa	>	ii6(2)
4r	.	4d)	]	.	.	.	.	.
4r	.	4B-'	.	4g)	]	4gg)	]	ii6
=32	=32	=32	=32	=32	=32	=32	=32	=32
4C	.	(4G	>	(2b-	>	(2bb-	>	V7
4r	.	4c)	]	.	.	.	.	.
4r	.	4B-'	.	4e)	]	4ee)	]	.
=33	=33	=33	=33	=33	=33	=33	=33	=33
4FF'	.	4A	.	4f	.	4ff	.	I\\
4r	.	4r	.	4r	.	4r	.	.
4A'	p	4r	.	4r	.	4r	.	.
=34	=34	=34	=34	=34	=34	=34	=34	=34
(4A	.	2.r	.	2.r	.	2.r	.	I
4B-)	.	.	.	.	.	.	.	.
4G'	.	.	.	.	.	.	.	.
=35	=35	=35	=35	=35	=35	=35	=35	=35
(4F	.	4r	.	2.r	.	2.r	.	V6
[2E)	.	4r	.	.	.	.	.	.
.	.	4c	p	.	.	.	.	.
=36	=36	=36	=36	=36	=36	=36	=36	=36
2.E]	.	(4c	.	2.r	.	2.r	.	V65
.	.	4d)	.	.	.	.	.	.
.	.	4B-'	.	.	.	.	.	.
=37	=37	=37	=37	=37	=37	=37	=37	=37
[2.F	.	(4B-	.	4r	.	2.r	.	I
.	.	[2A)	.	4r	.	.	.	.
.	.	.	.	4ff	p	.	.	.
=38	=38	=38	=38	=38	=38	=38	=38	=38
!	!	!	!	!LO:TX:b:t=cresc.	!	!	!	!
2.F]	.	2.A]	.	(4ff	.	2.r	.	V7/IV
.	.	.	.	4gg)	.	.	.	.
.	.	.	.	4ee-'	.	.	.	.
=39	=39	=39	=39	=39	=39	=39	=39	=39
!LO:TX:a:t=cresc.	!	!LO:TX:b:t=cresc.	!	!	!	!	!	!
[2.F#X	.	[2.a	.	(4ee-	.	4r	.	V6(2)/ii
.	.	.	.	[2dd)	.	4r	.	V6/ii
.	.	.	.	.	.	4ddd	p	.
=40	=40	=40	=40	=40	=40	=40	=40	=40
!	!	!	!	!	!	!LO:TX:b:t=cresc.	!	!
(2.F#]	.	(2.a]	.	2.dd_	.	4ddd	.	.
.	.	.	.	.	.	4eee-	.	.
.	.	.	.	.	.	4ccc'	.	.
=41	=41	=41	=41	=41	=41	=41	=41	=41
4G)	.	4b-)	.	4dd]	.	(4bb-	.	ii
4r	.	4r	.	4r	.	4ccc)	.	.
4A'	sf	4cc'	sf	4ff#X'	sf	4aa'	sf	viio65/ii
=42	=42	=42	=42	=42	=42	=42	=42	=42
4B-'	.	4b-'	.	4dd'	.	(4gg	.	ii6
4r	.	4r	.	4r	.	4aa)	.	.
4BX'	sf	4a-'	sf	4dd'	sf	4ff'	sf	#viio7/V
=43	=43	=43	=43	=43	=43	=43	=43	=43
[2.c	.	(4g	.	4cc'	.	(4ee	.	V[V64
.	.	4a)	.	4r	.	4dd)	.	I6
.	.	4f'	sf	4r	.	4dd'	sf	.
=44	=44	=44	=44	=44	=44	=44	=44	=44
2.c]	.	(4e	.	(4g	.	(4cc	.	V6
.	.	4f)	.	4a)	.	4dd)	.	vi6
.	.	4d'	sf	4f'	sf	4b-'	sf	IV6
=45	=45	=45	=45	=45	=45	=45	=45	=45
[2.C	.	(4c	.	(4e	.	(4a	.	iii6
.	.	4d)	.	4f)	.	4b-)	.	IV6
!	!	!	!LO:DY:a	!	!	!	!	!
.	.	4B-'	sf sf	4d'	.	4g'	sf	ii6
=46	=46	=46	=46	=46	=46	=46	=46	=46
2C]	.	(4A	.	(4c	.	(4f	.	I6
.	.	4B-)	.	4d)	.	4g)	.	ii6]
!	!	!	!LO:DY:a	!	!LO:DY:a	!	!	!
4C#X'	sf	4B-'	sf sf	4B-'	sf	4e'	.	#viio7/vi
=47	=47	=47	=47	=47	=47	=47	=47	=47
(4D	.	(2.A	.	[2.f	.	(2.f	.	vi
4C#X	.	.	.	.	.	.	.	.
4D	.	.	.	.	.	.	.	.
=48	=48	=48	=48	=48	=48	=48	=48	=48
4BBX	.	2.d)	.	2.f_	.	(2.g)	.	V65/V
4AA	.	.	.	.	.	.	.	.
4BB)	.	.	.	.	.	.	.	.
=49	=49	=49	=49	=49	=49	=49	=49	=49
[2.C	<[	[2.c	<[	4f]	<	4a)	<	V[I64
.	.	.	.	(4b-	.	(4dd	.	.
.	.	.	.	4a	[[	4cc	[[	.
=50	=50	=50	=50	=50	=50	=50	=50	=50
(2C]	>	(2c]	>	4g	>	4b-	>	V7
.	.	.	.	4f	.	4a	.	I64]
4C#X)	]]	4c#X)	]]	4e)	]]	4g)	]]	#viio/vi
=51	=51	=51	=51	=51	=51	=51	=51	=51
!LO:TX:b:t=cresc.	!	!LO:TX:b:t=cresc.	!	!LO:TX:b:t=cresc.	!	!LO:TX:b:t=cresc.	!	!
(4D	p	(4d	.	2.f	.	(2.ff	.	vi
4C#X	.	4c#X	.	.	.	.	.	.
4D	.	4d	.	.	.	.	.	.
=52	=52	=52	=52	=52	=52	=52	=52	=52
4BBX	.	4BX	.	[2.f [2.ff	.	(2.gg)	.	V65/V
4AA	.	4A	.	.	.	.	.	.
4BB)	.	4B)	.	.	.	.	.	.
=53	=53	=53	=53	=53	=53	=53	=53	=53
[2.C	p	[2.c	p	4f] 4ff]	p	4aa)	p	V[I64
.	.	.	.	(4bb-	.	(4ddd	.	.
.	.	.	.	4aa	.	4ccc	.	.
=54	=54	=54	=54	=54	=54	=54	=54	=54
2.C_	.	2c]	.	4gg	.	4bb-	.	V7
.	.	.	.	4ff	.	4aa	.	.
.	.	(4b-	.	4ee	.	4gg	.	.
=55	=55	=55	=55	=55	=55	=55	=55	=55
2.C_	.	4a)	.	4ff)	.	4ff)	.	I6
.	.	(4dd	.	4r	.	4r	.	.
.	.	4cc	.	4r	.	4r	.	.
=56	=56	=56	=56	=56	=56	=56	=56	=56
2C]	.	4b-	.	2.r	.	4r	.	V2]
.	.	4a	.	.	.	(4cc	.	.
(4B-	.	4g	.	.	.	4ee	.	V2
=57	=57	=57	=57	=57	=57	=57	=57	=57
4A)	.	4f)	.	2.r	.	4ff')	.	I6
(4d	.	(4b-	.	.	.	4r	.	IV6
4c	.	4a	.	.	.	4r	.	I64
=58	=58	=58	=58	=58	=58	=58	=58	=58
4B-	.	4g	.	4r	.	4r	.	V2
4A	.	4f	.	4r	.	(4ccc	.	I6
4G	.	4b-	.	4cc	.	4eee	.	V43
=59	=59	=59	=59	=59	=59	=59	=59	=59
!LO:TX:b:t=cresc.	!	!LO:TX:b:t=cresc.	!	!LO:TX:b:t=cresc.	!	!LO:TX:b:t=cresc.	!	!
4F')	.	4a)	.	4cc'	.	4fff')	.	I
(4D	.	4f	.	(4ff	.	(4ccc	.	vi7
4C	.	4f	.	4ee	.	4eee	.	V(4)
=60	=60	=60	=60	=60	=60	=60	=60	=60
4BB-	.	4f	.	4dd	.	4fff')	.	IV
4AA	.	4f	.	4cc	.	(4bbb-	.	I6(+4)
4GG)	.	4c	.	4b-)	.	4eee)	.	V43
=61	=61	=61	=61	=61	=61	=61	=61	=61
!	!	!	!LO:DY:a	!	!	!	!	!
4FF'	sfp	(2.e	sfp sfp	[2.c 2.b-	.	(2.ggg	sfp	I(4+2)
4AA'	.	.	.	.	.	.	.	.
4C'	.	.	.	.	.	.	.	.
=	=	=	=	=	=	=	=	=
4F'	.	4f)	.	4c] 4a	.	4fff)	.	I\\
4r	.	4r	.	4r	.	4r	.	.
=62:|!|:	=62:|!|:	=62:|!|:	=62:|!|:	=62:|!|:	=62:|!|:	=62:|!|:	=62:|!|:	=62:|!|:
*k[b-e-a-d-]	*	*k[b-e-a-d-]	*	*k[b-e-a-d-]	*	*k[b-e-a-d-]	*	*
4r	.	4r	.	4c	p	4r	.	i.i
=63	=63	=63	=63	=63	=63	=63	=63	=63
(2.F	p	(2.A-	p	(8cL	.	(2.a-	p	i
.	.	.	.	8eX	.	.	.	.
.	.	.	.	8f	.	.	.	.
.	.	.	.	8g	.	.	.	.
.	.	.	.	8a-	.	.	.	.
.	.	.	.	8b-J	.	.	.	.
=64	=64	=64	=64	=64	=64	=64	=64	=64
2.E-	.	2.G	.	8ccL	.	2.g	.	v6
.	.	.	.	8bX	.	.	.	.
.	.	.	.	8cc	.	.	.	.
.	.	.	.	8b	.	.	.	.
.	.	.	.	8cc	.	.	.	.
.	.	.	.	8bJ)	.	.	.	.
=65	=65	=65	=65	=65	=65	=65	=65	=65
2.D-	sf	2.F	sf	(8ccL	sf	2.f	sf	.Ger6
.	.	.	.	8ff	.	.	.	.
.	.	.	.	8eeX	.	.	.	.
.	.	.	.	8dd-	.	.	.	.
.	.	.	.	8cc	.	.	.	.
.	.	.	.	8bXJ)	.	.	.	.
=66	=66	=66	=66	=66	=66	=66	=66	=66
2.C)	.	2.EX)	.	4cc	.	4eX)	.	V\\
.	.	.	.	4r	.	4r	.	.
.	.	.	.	4r	.	4cc	.	.
=67	=67	=67	=67	=67	=67	=67	=67	=67
(2.F	.	(2.A-	.	(2.a-	.	(8ccL	.	i
.	.	.	.	.	.	8eeX	.	.
.	.	.	.	.	.	8ff	.	.
.	.	.	.	.	.	8gg	.	.
.	.	.	.	.	.	8aa-	.	.
.	.	.	.	.	.	8bb-J	.	.
=68	=68	=68	=68	=68	=68	=68	=68	=68
2.E-	.	2.G	.	2.g	.	8cccL	.	v6
.	.	.	.	.	.	8bbX	.	.
.	.	.	.	.	.	8ccc	.	.
.	.	.	.	.	.	8bb	.	.
.	.	.	.	.	.	8ccc	.	.
.	.	.	.	.	.	8bbJ)	.	.
=69	=69	=69	=69	=69	=69	=69	=69	=69
2.D-	sf	2.F	sf	2.f	sf	(8cccL	sf	iv6(2)
.	.	.	.	.	.	8fff	.	.
.	.	.	.	.	.	8eee-	.	.
.	.	.	.	.	.	8ddd-	.	.
.	.	.	.	.	.	8ccc	.	.Ger6
.	.	.	.	.	.	8bbXJ)	.	.
=70	=70	=70	=70	=70	=70	=70	=70	=70
2.C)	.	2.EX)	.	2.eX)	.	4ccc	.	V\\
.	.	.	.	.	.	4r	.	.
.	.	.	.	.	.	4ccc	.	.
=71	=71	=71	=71	=71	=71	=71	=71	=71
!LO:TX:b:t=cresc.	!	!LO:TX:b:t=cresc.	!	!LO:TX:b:t=cresc.	!	!LO:TX:b:t=cresc.	!	!
(2.F	.	(2.A-	.	(2.a-	.	(8cccL	.	i
.	.	.	.	.	.	8ddd	.	.
.	.	.	.	.	.	8eee-	.	.
.	.	.	.	.	.	8ddd	.	.
.	.	.	.	.	.	8ccc	.	.
.	.	.	.	.	.	8dddJ	.	.
=72	=72	=72	=72	=72	=72	=72	=72	=72
2.F#X)	.	2.c)	.	2.aX)	.	8eee-L	.	#viio7/ii
.	.	.	.	.	.	8ddd	.	.
.	.	.	.	.	.	8ccc	.	.
.	.	.	.	.	.	8ddd	.	.
.	.	.	.	.	.	8eee-	.	.
.	.	.	.	.	.	8dddJ)	.	.
=73	=73	=73	=73	=73	=73	=73	=73	=73
4G	p	4e-	p	4g	p	(8cccL	p	v.V(64)
.	.	.	.	.	.	8eee-	.	.
4r	.	4r	.	4r	.	8ggg	.	.
.	.	.	.	.	.	8eee-	.	.
4GG	.	4f	.	4g	.	8ddd	.	V7
.	.	.	.	.	.	8bbXJ)	.	.
=	=	=	=	=	=	=	=	=
4C	.	4e-	.	4g	.	4ccc	.	i\\
4r	.	4r	.	4r	.	4r	.	.
=74:|!	=74:|!	=74:|!	=74:|!	=74:|!	=74:|!	=74:|!	=74:|!	=74:|!
!	!	!	!LO:DY:a	!	!	!	!	!
4r	.	4r	p	4B-	.	4r	.	.
=75	=75	=75	=75	=75	=75	=75	=75	=75
(2.E-	p	(2.G-X	p	(8B-L	.	(2.g-X	p	iv.vi
.	.	.	.	8d	.	.	.	.
.	.	.	.	8e-	.	.	.	.
.	.	.	.	8f	.	.	.	.
.	.	.	.	8g	.	.	.	.
.	.	.	.	8a-J	.	.	.	.
=76	=76	=76	=76	=76	=76	=76	=76	=76
2.D-	.	2.F	.	8b-L	.	2.f	.	iv6
.	.	.	.	8aX	.	.	.	.
.	.	.	.	8b-	.	.	.	.
.	.	.	.	8a	.	.	.	.
.	.	.	.	8b-	.	.	.	.
.	.	.	.	8aJ)	.	.	.	.
=77	=77	=77	=77	=77	=77	=77	=77	=77
!	!LO:DY:a	!	!	!	!	!	!	!
2.C	sf sf	2.E-	.	(8b-L	sf	2.e-	sf	#viio6
.	.	.	.	8ee-	.	.	.	.
.	.	.	.	8dd-	.	.	.	.
.	.	.	.	8cc	.	.	.	.
.	.	.	.	8b-	.	.	.	.
.	.	.	.	8aXJ)	.	.	.	.
=78	=78	=78	=78	=78	=78	=78	=78	=78
2.BB-)	.	2.F)	.	4b-	.	4d-)	.	i\\
.	.	.	.	4r	.	4r	.	.
.	.	.	.	4r	.	4f	.	.
=79	=79	=79	=79	=79	=79	=79	=79	=79
(2.B-	.	(2.d-	.	(2.dd-	.	(8fL	.	i
.	.	.	.	.	.	8aX	.	.
.	.	.	.	.	.	8b-	.	.
.	.	.	.	.	.	8cc	.	.
.	.	.	.	.	.	8dd-	.	.
.	.	.	.	.	.	8ee-J	.	.
=80	=80	=80	=80	=80	=80	=80	=80	=80
2.A-	.	2.c	.	2.cc	.	8ffL	.	i.i6
.	.	.	.	.	.	8eeX	.	.
.	.	.	.	.	.	8ff	.	.
.	.	.	.	.	.	8ee	.	.
.	.	.	.	.	.	8ff	.	.
.	.	.	.	.	.	8eeJ)	.	.
=81	=81	=81	=81	=81	=81	=81	=81	=81
2.G	sf	2.B-	sf	2.b-	sf	(8ffL	sf	#viio6(2)
.	.	.	.	.	.	8bb-	.	.
.	.	.	.	.	.	8aa-	.	.
.	.	.	.	.	.	8gg	.	.
.	.	.	.	.	.	8ff	.	.
.	.	.	.	.	.	8eeXJ)	.	#viio6
=82	=82	=82	=82	=82	=82	=82	=82	=82
2.F)	.	2.A-)	.	2.a-)	.	4ff	.	i\\
.	.	.	.	.	.	4r	.	.
.	.	.	.	.	.	4cc	.	.
=83	=83	=83	=83	=83	=83	=83	=83	=83
(2.F	.	(2.a-	.	(2.aa-	.	(8ccL	.	i
.	.	.	.	.	.	8eeX	.	.
.	.	.	.	.	.	8ff	.	.
.	.	.	.	.	.	8gg	.	.
.	.	.	.	.	.	8aa-	.	.
.	.	.	.	.	.	8bb-J	.	.
=84	=84	=84	=84	=84	=84	=84	=84	=84
2.E-	.	2.g	.	2.gg	.	8cccL	.	v6
.	.	.	.	.	.	8bbX	.	.
.	.	.	.	.	.	8ccc	.	.
.	.	.	.	.	.	8bb	.	.
.	.	.	.	.	.	8ccc	.	.
.	.	.	.	.	.	8bbJ)	.	.
=85	=85	=85	=85	=85	=85	=85	=85	=85
2.D-	sf	2.f	sf	2.ff	sf	(8cccL	sf	iv6(2)
.	.	.	.	.	.	8fff	.	.
.	.	.	.	.	.	8eee-	.	.
.	.	.	.	.	.	8ddd-	.	.
.	.	.	.	.	.	8ccc	.	.
.	.	.	.	.	.	8bbXJ)	.	.Ger6
=86	=86	=86	=86	=86	=86	=86	=86	=86
2.C)	.	2.eX)	.	2.eeX)	.	4ccc	.	V\\
.	.	.	.	.	.	4r	.	.
.	.	.	.	.	.	4ccc	.	.
=87	=87	=87	=87	=87	=87	=87	=87	=87
(2.D-	sf	(2.f	sf	(2.ff	sf	8cccL	sf	iv6(2)
.	.	.	.	.	.	8fff	.	.
.	.	.	.	.	.	8eee-	.	.
.	.	.	.	.	.	8ddd-	.	.
.	.	.	.	.	.	8ccc	.	.
.	.	.	.	.	.	8bbXJ	.	.Ger6
=88	=88	=88	=88	=88	=88	=88	=88	=88
2.C)	.	2.eX)	.	2.eeX)	.	4ccc	.	V
.	.	.	.	.	.	4r	.	.
.	.	.	.	.	.	4ccc	.	.
=89	=89	=89	=89	=89	=89	=89	=89	=89
!LO:TX:b:t=cresc.	!	!LO:TX:b:t=cresc.	!	!LO:TX:b:t=cresc.	!	!LO:TX:b:t=cresc.	!	!
[2.D-	.	(2.f	.	(2.ff	.	(8cccL	.	iv6(2)
.	.	.	.	.	.	8fff	.	.
.	.	.	.	.	.	8eee-	.	.
.	.	.	.	.	.	8ddd-	.	.
.	.	.	.	.	.	8ccc	.	.
.	.	.	.	.	.	8bbXJ	.	.Ger6
=90	=90	=90	=90	=90	=90	=90	=90	=90
2.D-]	.	2.F)	.	2.f)	.	8cccL	.	.
.	.	.	.	.	.	8bbX	.	.
.	.	.	.	.	.	8ccc	.	.
.	.	.	.	.	.	8bb	.	.
.	.	.	.	.	.	8ccc	.	.
.	.	.	.	.	.	8bbJ)	.	.
=91	=91	=91	=91	=91	=91	=91	=91	=91
4C	p	4G	p	4eX	p	4ccc	p	V\\
4r	.	4r	.	4r	.	4r	.	.
4r	.	4r	.	4r	.	4r	.	.
=92	=92	=92	=92	=92	=92	=92	=92	=92
!	!	!	!	!	!	!LO:TX:b:t=decresc.	!	!
2.r	.	2.r	.	2.r	.	4eeeX	.	.
.	.	.	.	.	.	4r	.	.
.	.	.	.	.	.	4r	.	.
=93	=93	=93	=93	=93	=93	=93	=93	=93
2.r	.	2.r	.	2.r	.	4ggg	.	.
.	.	.	.	.	.	4r	.	.
.	.	.	.	.	.	4r	.	.
=94	=94	=94	=94	=94	=94	=94	=94	=94
2.r	.	2.r	.	2.r	.	4aaaX	.	.
.	.	.	.	.	.	4r	.	.
.	.	.	.	.	.	4r	.	.
=95	=95	=95	=95	=95	=95	=95	=95	=95
!LO:TX:a:t=pizz.	!	!LO:TX:a:t=pizz.	!	!	!	!	!	!
4B-	pp	4b-	pp	2.r	.	4bbb-	pp	V7
4r	.	4r	.	.	.	4r	.	.
4r	.	4r	.	.	.	4r	.	.
=96	=96	=96	=96	=96	=96	=96	=96	=96
4G	.	4g	.	2.r	.	2.r	.	.
4r	.	4r	.	.	.	.	.	.
4r	.	4r	.	.	.	.	.	.
=97	=97	=97	=97	=97	=97	=97	=97	=97
4EX	.	4eX	.	2.r	.	2.r	.	.
4r	.	4r	.	.	.	.	.	.
4r	.	4r	.	.	.	.	.	.
=98	=98	=98	=98	=98	=98	=98	=98	=98
4C	.	4c	.	2.r	.	4r	.	.
4r	.	4r	.	.	.	4r	.	I.I
4r	.	4r	.	.	.	4aX	p	.
=99||	=99||	=99||	=99||	=99||	=99||	=99||	=99||	=99||
*k[b-]	*	*k[b-]	*	*k[b-]	*	*k[b-]	*	*
!LO:TX:a:t=arco	!	!LO:TX:a:t=arco	!	!	!	!	!	!
(2.F	p	(2.f	p	(2c	p	[2.a	.	I+
.	.	.	.	4c#X)	.	.	.	.
=100	=100	=100	=100	=100	=100	=100	=100	=100
[2.BB-)	.	2.B-)	.	2.d	.	(4a]	.	ii6(2)
.	.	.	.	.	.	4b-	.	.
.	.	.	.	.	.	4g)	.	ii6
=101	=101	=101	=101	=101	=101	=101	=101	=101
4BB-]	.	4G'	.	4c	.	(4f	.	V2(4)
4BB-'	.	(4G	.	4c	.	4e)	.	V2
8AAL	.	4A)	.	4c	.	4f'	.	I6
8FFJ	.	.	.	.	.	.	.	.
=102	=102	=102	=102	=102	=102	=102	=102	=102
4C	.	4c	.	(4f	.	(4a	.	V(64)
4r	.	4r	.	4e)	.	4g)	.	V\\
4r	.	4r	.	4r	.	4a'	.	.
=103	=103	=103	=103	=103	=103	=103	=103	=103
(2.F	<[	(2.f	<[	(2.c	<[	2a	<	I
.	.	.	.	.	.	[4b-	[[	.
=104	=104	=104	=104	=104	=104	=104	=104	=104
2D)	>	2d)	>	2f)	>	(4b-]	>	vi(6)
.	.	.	.	.	.	4a)	.	vi
4D	]]	4d	]]	4f	]]	4g#X'	]]	iii.#viio43
=105	=105	=105	=105	=105	=105	=105	=105	=105
4C	.	4c'	.	4e'	.	(2a	.	i
4AA	.	(4c	.	(4e	.	.	.	.
4E	.	4d)	.	4g#X)	.	8ccL	.	V7(6)
.	.	.	.	.	.	8bXJ)	.	V7
=106	=106	=106	=106	=106	=106	=106	=106	=106
4AA	.	4c	.	4a	.	4a	.	i\\
4r	.	4r	.	4r	.	4r	.	.
4r	.	4r	.	4a	.	4aa	.	.
=107	=107	=107	=107	=107	=107	=107	=107	=107
(2.F	.	(2c	.	[2.a	.	[2.aa	.	I+
.	.	4c#X)	.	.	.	.	.	.
=108	=108	=108	=108	=108	=108	=108	=108	=108
2BB-)	.	2d	.	(4a]	.	(4aa]	.	IV
.	.	.	.	4b-	.	4bb-	.	.
[4B-	.	4d	.	4g)	.	4gg)	.	ii6
=109	=109	=109	=109	=109	=109	=109	=109	=109
4B-]	.	4c	.	(4f	.	(4ff	.	V2(4)
4B-'	.	4c	.	4e)	.	4ee)	.	V2
8AL	.	4c	.	4f'	.	4ff'	.	I
8FJ	.	.	.	.	.	.	.	.
=110	=110	=110	=110	=110	=110	=110	=110	=110
4c	.	(4f	.	(4a	.	(4aa	.	V(64)
4r	.	4e)	.	4g)	.	4gg)	.	V\\
4r	.	4r	.	4a'	.	4aa'	.	.
=111	=111	=111	=111	=111	=111	=111	=111	=111
(2.F	> < [[	(2.c	<[	2a	<	2aa	<	I
.	.	.	.	[4b-	[ >	[4bb-	[ >	.
=112	=112	=112	=112	=112	=112	=112	=112	=112
2.D)	[	2.f)	>]	(4b-]	.	(4bb-]	.	iii.iv(6)
.	.	.	.	4a)	]	4aa)	]	iv
.	.	.	.	4g#X'	.	4gg#X'	.	iv(#4)
=113	=113	=113	=113	=113	=113	=113	=113	=113
4C'	.	4e'	.	(2a	.	(2aa	.	i
4AA'	.	(4e	.	.	.	.	.	.
4E'	.	4g#X)	.	8ccL	.	8cccL	.	V(6)
.	.	.	.	8bXJ)	.	8bbXJ)	.	V
=114	=114	=114	=114	=114	=114	=114	=114	=114
4AA	.	4a	.	4a	.	4aa	.	i\\
4r	.	4r	.	4r	.	4r	.	.
4r	.	[4a	.	[4cc	.	[4ccc	.	.
=115	=115	=115	=115	=115	=115	=115	=115	=115
(2d	.	4a]	.	4cc]	.	4ccc]	.	I.V7/ii
.	.	(4g	.	(4b-	.	(4bb-	.	V(64)/ii
4c	.	4f#X	.	4a	.	4aa	.	#viio64/ii
=116	=116	=116	=116	=116	=116	=116	=116	=116
4B-	.	4g	.	4b-	.	4bb-	.	ii6
4A	.	4a	.	4cc	.	4ccc	.	.
4G)	.	4b-	.	4dd	.	4ddd	.	ii
=117	=117	=117	=117	=117	=117	=117	=117	=117
[2.F	.	4cc	.	4ee-	.	4eee-	.	V7/IV
.	.	4dd	.	4ff	.	4fff	.	.
.	.	4ee-)	.	4gg)	.	4ggg)	.	V9/IV
=118	=118	=118	=118	=118	=118	=118	=118	=118
2F;]	.	2a;	.	2cc;	.	2ccc;	.	V7/IV
4r	.	4r	.	4dd	pp	4ddd	pp	IV.I
=119	=119	=119	=119	=119	=119	=119	=119	=119
2.B-	pp	(2f	pp	[2.dd	.	[2.ddd	.	I+
.	.	4f#X)	.	.	.	.	.	.
=120	=120	=120	=120	=120	=120	=120	=120	=120
[2.E-	.	2.g	.	(4dd]	.	(4ddd]	.	ii6(2)
.	.	.	.	4ee-	.	4eee-	.	.
.	.	.	.	4cc)	.	4ccc)	.	ii6
=121	=121	=121	=121	=121	=121	=121	=121	=121
4E-]	.	(4c	.	(4b-	.	(4bb-	.	V2(4)
4E-	.	4f)	.	4a)	.	4aa)	.	V2
8DL	.	4f'	.	4b-'	.	4bb-'	.	I6
8BB-J	.	.	.	.	.	.	.	.
=122	=122	=122	=122	=122	=122	=122	=122	=122
4F	.	(4b-	.	(4dd	.	(4ddd	.	V(64)
4r	.	4a)	.	4cc)	.	4ccc)	.	V\\
4A'	sf	4f'	sf	4cc#X'	sf	4ccc#X'	sf	V+6
=123	=123	=123	=123	=123	=123	=123	=123	=123
4B-'	.	4f'	.	(4ee-	.	(4eee-	.	I(4)
4r	.	4r	.	4dd)	.	4ddd)	.	I
4G'	sf	4b-'	sf	4eeX'	sf	4eeeX'	sf	I.#viio6
=124	=124	=124	=124	=124	=124	=124	=124	=124
4A'	.	4cc'	.	(4gg	.	(4ggg	.	I6(2)
4r	.	4r	.	4ff)	.	4fff)	.	I6
4E'	sf	4cc'	sf	4gg'	sf	4ggg'	sf	V6
=125	=125	=125	=125	=125	=125	=125	=125	=125
4F	.	4cc	.	(4bb-	.	(4bbb-	.	V(4)
4r	.	4r	.	4aa)	.	4aaa)	.	V
4G	sf	4f 4ff	sf	4bb-'	sf	4bbb-'	sf	ii7
=126	=126	=126	=126	=126	=126	=126	=126	=126
!LO:TX:b:t=cresc.	!	!LO:TX:b:t=cresc.	!	!LO:TX:b:t=cresc.	!	!LO:TX:b:t=cresc.	!	!
(2.G#X	.	[2.f [2.ff	.	[2.bbX	.	[2.bbbX	.	#viio7
=127	=127	=127	=127	=127	=127	=127	=127	=127
[2.A)	.	2.f_ 2.ff_	.	2.bb]	.	2.bbb]	.	I6(#4)
=128	=128	=128	=128	=128	=128	=128	=128	=128
2A;]	p	2f;] 2ff]	p	2ccc;	p	2cccc;	p	I6
4r	.	4r	.	4cc#X	.	4ccc#X'	.	I+6
=129	=129	=129	=129	=129	=129	=129	=129	=129
2.r	.	2.r	.	(2.cc#X	.	(2.ccc#X	.	.
=130	=130	=130	=130	=130	=130	=130	=130	=130
2.r	.	2.r	.	4dd	.	4ddd	.	IV
.	.	.	.	4b-	.	4bb-	.	.
.	.	.	.	4a)	.	4aa)	.	.
=131	=131	=131	=131	=131	=131	=131	=131	=131
(2.B-	<[	(2.d	<[	(2.g#X	<[	(2.gg#X	<[	.Ger/vi
=132	=132	=132	=132	=132	=132	=132	=132	=132
4A)	>	4c#X)	>	4a)	>	4aa)	>	V/vi\\
4r	]	4r	]	4r	]	4r	]	.
4r	.	4r	.	4cc#X	.	4ccc#X	.	.
=133	=133	=133	=133	=133	=133	=133	=133	=133
2.r	.	2.r	.	(2.cc#X	.	(2.ccc#X	.	.
=134	=134	=134	=134	=134	=134	=134	=134	=134
2.r	.	2.r	.	4dd	.	4ddd	.	ii
.	.	.	.	4b-	.	4bb-	.	.
.	.	.	.	4g)	.	4gg)	.	.
=135	=135	=135	=135	=135	=135	=135	=135	=135
[2.BB-	<[	[2.c	<[	(2.f	<[	(2.ff	<[	V2(4)
=136	=136	=136	=136	=136	=136	=136	=136	=136
2BB-]	>	4c]	>	4e)	>	4ee)	>	V2
.	.	4r	.	4r	.	4r	.	.
4AA	]	4c	]	4f	]	4ff	]	I6
=137	=137	=137	=137	=137	=137	=137	=137	=137
4BB-	.	(4c#X	>	(2a	>	(2aa	>	ii6(2)
4r	.	4d)	]	.	.	.	.	.
4r	.	4B-'	.	4g)	]	4gg)	]	ii6
=138	=138	=138	=138	=138	=138	=138	=138	=138
4C	.	(4G	>	(2b-	>	(2bb-	>	V7
4r	.	4c)	.	.	.	.	.	.
4r	.	4B-'	]	4e)	]	4ee)	]	.
=139	=139	=139	=139	=139	=139	=139	=139	=139
4F	.	4A	.	4f	.	4ff	.	I\\
4r	.	4r	.	4r	.	4r	.	.
4A'	p	4r	.	4r	.	4r	.	.
=140	=140	=140	=140	=140	=140	=140	=140	=140
(4A	.	2.r	.	2.r	.	2.r	.	I
4B-)	.	.	.	.	.	.	.	.
4G'	.	.	.	.	.	.	.	.
=141	=141	=141	=141	=141	=141	=141	=141	=141
(4F	.	4r	.	2.r	.	2.r	.	V6
[2E)	.	4r	.	.	.	.	.	.
.	.	4c	p	.	.	.	.	.
=142	=142	=142	=142	=142	=142	=142	=142	=142
2.E]	.	(4c	.	2.r	.	2.r	.	V65
.	.	4d)	.	.	.	.	.	.
.	.	4B-'	.	.	.	.	.	.
=143	=143	=143	=143	=143	=143	=143	=143	=143
[2.F	.	(4B-	.	4r	.	2.r	.	I
.	.	[2A)	.	4r	.	.	.	.
.	.	.	.	4ff	p	.	.	.
=144	=144	=144	=144	=144	=144	=144	=144	=144
2.F]	.	2.A]	.	(4ff	.	2.r	.	V7/IV
.	.	.	.	4gg)	.	.	.	.
.	.	.	.	4ee-'	.	.	.	.
=145	=145	=145	=145	=145	=145	=145	=145	=145
!LO:TX:b:t=cresc.	!	!LO:TX:b:t=cresc.	!	!LO:TX:b:t=cresc.	!	!	!	!
[2.F#X	.	[2.a	.	(4ee-	.	4r	.	V6(2)/ii
.	.	.	.	[2dd)	.	4r	.	V6/ii
.	.	.	.	.	.	4ddd	p	.
=146	=146	=146	=146	=146	=146	=146	=146	=146
!	!	!	!	!	!	!LO:TX:b:t=cresc.	!	!
(2.F#]	.	(2.a]	.	2.dd_	.	(4ddd	.	.
.	.	.	.	.	.	4eee-)	.	.
.	.	.	.	.	.	4ccc'	.	.
=147	=147	=147	=147	=147	=147	=147	=147	=147
4G)	.	4b-)	.	4dd]	.	(4bb-	.	ii
4r	.	4r	.	4r	.	4ccc)	.	.
4A'	sf	4cc'	sf	4ff#X'	sf	4aa'	sf	#viio65/ii
=148	=148	=148	=148	=148	=148	=148	=148	=148
4B-'	.	4b-'	.	4dd'	.	4gg	.	ii6
4r	.	4r	.	4r	.	4aa	.	.
4BX'	sf	4a-'	sf	4dd'	sf	4ff	sf	#viio7/V
=149	=149	=149	=149	=149	=149	=149	=149	=149
[2.c	.	4g	.	4cc	.	(4ee	.	V[V
.	.	4a	.	4r	.	4ff)	.	I64
.	.	4f'	sf	4r	.	4dd'	sf	.
=150	=150	=150	=150	=150	=150	=150	=150	=150
2.c]	.	(4e	.	(4g	.	(4cc	.	V6
.	.	4f)	.	4a)	.	4dd)	.	vi6
.	.	4d'	sf	4f'	sf	4b-'	sf	IV6
=151	=151	=151	=151	=151	=151	=151	=151	=151
[2.C	.	(4c	.	(4e	.	(4a	.	iii6
.	.	4d)	.	4f)	.	4b-)	.	IV6
!	!	!	!LO:DY:a	!	!	!	!	!
.	.	4B-'	sf sf	4d'	.	4g'	sf	ii6
=152	=152	=152	=152	=152	=152	=152	=152	=152
2C]	.	(4A	.	(4c	.	(4f	.	I6
.	.	4B-)	.	4d)	.	4g)	.	ii6]
!	!	!	!LO:DY:a	!	!	!	!	!
4C#X	sf	4B-'	sf sf	4B-'	.	4e'	sf	#viio/vi
=153	=153	=153	=153	=153	=153	=153	=153	=153
(4D	.	2.A	.	[2.f	.	2.f	.	vi
4C#X	.	.	.	.	.	.	.	.
4D	.	.	.	.	.	.	.	.
=154	=154	=154	=154	=154	=154	=154	=154	=154
4BBX	.	2.d	.	2.f_	.	(2.g	.	V65/V
4AA	.	.	.	.	.	.	.	.
4BB)	.	.	.	.	.	.	.	.
=155	=155	=155	=155	=155	=155	=155	=155	=155
[2.C	<[	[2.c	<[	4f]	<	4a)	<	V[I64
.	.	.	.	(4b-	.	(4dd	.	.
.	.	.	.	4a	[[	4cc	[[	.
=156	=156	=156	=156	=156	=156	=156	=156	=156
(2C]	>	(2c]	>	4g	>	4b-	>	V7]
.	.	.	.	4f	.	4a	.	.
4C#X)	]]	4c#X)	]]	4e)	]]	4g)	]]	#viio/vi
=157	=157	=157	=157	=157	=157	=157	=157	=157
!LO:TX:b:t=cresc.	!	!LO:TX:b:t=cresc.	!	!LO:TX:b:t=cresc.	!	!LO:TX:b:t=cresc.	!	!
(4D	.	(4d	.	2.f	.	(2.ff	.	vi
4C#X	.	4c#X	.	.	.	.	.	.
4D	.	4d	.	.	.	.	.	.
=158	=158	=158	=158	=158	=158	=158	=158	=158
4BBX	.	4BX	.	[2.f [2.ff	.	2.gg	.	V65/V
4AA	.	4A	.	.	.	.	.	.
4BB)	.	4B)	.	.	.	.	.	.
=159	=159	=159	=159	=159	=159	=159	=159	=159
[2.C	p	[2.c	p	4f] 4ff]	p	4aa)	p	V[I64
.	.	.	.	(4bb-	.	(4ddd	.	.
.	.	.	.	4aa	.	4ccc	.	.
=160	=160	=160	=160	=160	=160	=160	=160	=160
2.C_	.	2c]	.	4gg	.	4bb-	.	V7
.	.	.	.	4ff	.	4aa	.	.
.	.	(4b-	.	4ee)	.	4gg)	.	.
=161	=161	=161	=161	=161	=161	=161	=161	=161
2.C_	.	4a)	.	4ff	.	4ff	.	I64
.	.	(4dd	.	4r	.	4r	.	.
.	.	4cc	.	4r	.	4r	.	.
=162	=162	=162	=162	=162	=162	=162	=162	=162
2C]	.	4b-	.	2.r	.	4r	.	V2
.	.	4a	.	.	.	(4cc	.	I6]
(4B-	.	4g	.	.	.	4ee	.	V2
=163	=163	=163	=163	=163	=163	=163	=163	=163
4A)	.	4f)	.	2.r	.	4ff)	.	I6
(4d	.	(4b-	.	.	.	4r	.	.
4c	.	4a	.	.	.	4r	.	.
=164	=164	=164	=164	=164	=164	=164	=164	=164
4B-	.	4g	.	4r	.	4r	.	V2
4A	.	4f	.	4r	.	(4ccc	.	I6
4G	.	4b-	.	4cc	.	4eee	.	V43
=165	=165	=165	=165	=165	=165	=165	=165	=165
!LO:TX:b:t=cresc.	!	!LO:TX:b:t=cresc.	!	!LO:TX:b:t=cresc.	!	!LO:TX:b:t=cresc.	!	!
4F')	.	4a')	.	4cc	.	4fff')	.	I
(4D	.	4f	.	(4ff	.	(4ccc	.	vi7
4C	.	4f	.	4ee	.	4eee	.	V(+4)
=166	=166	=166	=166	=166	=166	=166	=166	=166
4BB-	.	4f	.	4dd	.	4fff')	.	IV
4AA	.	4f	.	4cc	.	(4bbb-	.	I6(+4)
4GG)	.	4c	.	4b-)	.	4eee)	.	V43
=167	=167	=167	=167	=167	=167	=167	=167	=167
!	!	!	!LO:DY:a	!	!	!	!	!
4FF'	sfp	(2.e	sfp sfp	([2.c 2.b-	.	(2.ggg	sfp	I(4+2)
4AA'	.	.	.	.	.	.	.	.
4C'	.	.	.	.	.	.	.	.
=168	=168	=168	=168	=168	=168	=168	=168	=168
4F	.	4f)	.	4c]) 4a	.	4fff)	.	I\\
4r	.	4r	.	4r	.	4r	.	.
==	==	==	==	==	==	==	==	==
*-	*-	*-	*-	*-	*-	*-	*-	*-
!!!system-decoration: s1,s2,s3,s4
